N00000 (.../Program Files/EAGLE-6.5.0/ulp/pcb-gcode.ulp)
N00010 (Copyright 2005 - 2012 by John Johnson)
N00020 (See readme.txt for licensing terms.)
N00030 (This file generated from the board:)
N00040 (.../Brians LED PCB/Brians test board 10.brd)
N00050 (Current profile is .../EAGLE-6.5.0/ulp/profiles/mach.pp  )
N00060 (This file generated 5/06/2021 12:44:56 PM)
N00070 (Settings from pcb-machine.h)
N00080 (  Tool Size)
N00090 (0.1000  )
N00100 (Z Axis Settings)
N00110 (  High     Up        Down     Drill)
N00120 (25.0000 	1.0000  	0.0000  	-0.8128 )
N00130 (spindle on time = 3.0000)
N00140 (milling depth = -0.1000)
N00150 (text depth = -0.1000)
N00160 (tool change at 0.0000  0.0000  25.0000 )
N00170 (feed rate xy = F100   )
N00180 (feed rate z  = F75    )
N00190 (Settings from pcb-defaults.h)
N00200 (isolate min = 0.0254)
N00210 (isolate max = 0.5080)
N00220 (isolate step = 0.1270)
N00230 (Generated )
N00240 (Unit of measure: mm)
N00250 (Metric Mode)
N00260 G21
N00270 (Absolute Coordinates)
N00280 G90
N00290 G00 X0.0000  Y0.0000  
N00300 M03
N00310 G04 P3.000000
N00320 G00 Z1.0000  
N00330 G00 X26.7970 Y55.4160 
N00340 G01 Z-0.1000 F75    
N00350 G01 X27.7715 Y56.3905 F100   
N00360 G01 X27.7715 Y53.4670 
N00370 G00 Z1.0000  
N00380 G00 X26.7970 Y53.4670 
N00390 G01 Z-0.1000 F75    
N00400 G01 X28.7460 Y53.4670 F100   
N00410 G00 Z1.0000  
N00420 G00 X75.6666 Y7.5204  
N00430 G01 Z-0.1000 F75    
N00440 G01 X75.6666 Y5.1816  F100   
N00450 G01 X77.2258 Y5.1816  
N00460 G00 Z1.0000  
N00470 G00 X78.0054 Y6.7408  
N00480 G01 Z-0.1000 F75    
N00490 G01 X78.7850 Y7.5204  F100   
N00500 G01 X78.7850 Y5.1816  
N00510 G00 Z1.0000  
N00520 G00 X78.0054 Y5.1816  
N00530 G01 Z-0.1000 F75    
N00540 G01 X79.5646 Y5.1816  F100   
N00550 G00 Z1.0000  
N00560 G00 X82.0166 Y7.5204  
N00570 G01 Z-0.1000 F75    
N00580 G01 X82.0166 Y5.1816  F100   
N00590 G01 X83.5758 Y5.1816  
N00600 G00 Z1.0000  
N00610 G00 X85.9146 Y5.1816  
N00620 G01 Z-0.1000 F75    
N00630 G01 X84.3554 Y5.1816  F100   
N00640 G01 X85.9146 Y6.7408  
N00650 G01 X85.9146 Y7.1306  
N00660 G01 X85.5248 Y7.5204  
N00670 G01 X84.7452 Y7.5204  
N00680 G01 X84.3554 Y7.1306  
N00690 G00 Z1.0000  
N00700 G00 X81.0358 Y50.3106 
N00710 G01 Z-0.1000 F75    
N00720 G01 X80.6460 Y50.7004 F100   
N00730 G01 X79.8664 Y50.7004 
N00740 G01 X79.4766 Y50.3106 
N00750 G01 X79.4766 Y48.7514 
N00760 G01 X79.8664 Y48.3616 
N00770 G01 X80.6460 Y48.3616 
N00780 G01 X81.0358 Y48.7514 
N00790 G01 X81.0358 Y49.5310 
N00800 G01 X80.2562 Y49.5310 
N00810 G00 Z1.0000  
N00820 G00 X20.7108 Y36.9756 
N00830 G01 Z-0.1000 F75    
N00840 G01 X20.3210 Y37.3654 F100   
N00850 G01 X19.5414 Y37.3654 
N00860 G01 X19.1516 Y36.9756 
N00870 G01 X19.1516 Y35.4164 
N00880 G01 X19.5414 Y35.0266 
N00890 G01 X20.3210 Y35.0266 
N00900 G01 X20.7108 Y35.4164 
N00910 G01 X20.7108 Y36.1960 
N00920 G01 X19.9312 Y36.1960 
N00930 G00 Z1.0000  
N00940 G00 X21.4904 Y35.0266 
N00950 G01 Z-0.1000 F75    
N00960 G01 X21.4904 Y37.3654 F100   
N00970 G01 X23.0496 Y35.0266 
N00980 G01 X23.0496 Y37.3654 
N00990 G00 Z1.0000  
N01000 G00 X23.8292 Y37.3654 
N01010 G01 Z-0.1000 F75    
N01020 G01 X23.8292 Y35.0266 F100   
N01030 G01 X24.9986 Y35.0266 
N01040 G01 X25.3884 Y35.4164 
N01050 G01 X25.3884 Y36.9756 
N01060 G01 X24.9986 Y37.3654 
N01070 G01 X23.8292 Y37.3654 
N01080 G00 Z1.0000  
N01090 G00 X57.2516 Y40.7416 
N01100 G01 Z-0.1000 F75    
N01110 G01 X57.2516 Y43.0804 F100   
N01120 G01 X58.4210 Y43.0804 
N01130 G01 X58.8108 Y42.6906 
N01140 G01 X58.8108 Y41.9110 
N01150 G01 X58.4210 Y41.5212 
N01160 G01 X57.2516 Y41.5212 
N01170 G00 Z1.0000  
N01180 G00 X59.9802 Y40.7416 
N01190 G01 Z-0.1000 F75    
N01200 G01 X60.7598 Y40.7416 F100   
N01210 G01 X61.1496 Y41.1314 
N01220 G01 X61.1496 Y41.9110 
N01230 G01 X60.7598 Y42.3008 
N01240 G01 X59.9802 Y42.3008 
N01250 G01 X59.5904 Y41.9110 
N01260 G01 X59.5904 Y41.1314 
N01270 G01 X59.9802 Y40.7416 
N01280 G00 Z1.0000  
N01290 G00 X61.9292 Y42.3008 
N01300 G01 Z-0.1000 F75    
N01310 G01 X61.9292 Y41.1314 F100   
N01320 G01 X62.3190 Y40.7416 
N01330 G01 X62.7088 Y41.1314 
N01340 G01 X63.0986 Y40.7416 
N01350 G01 X63.4884 Y41.1314 
N01360 G01 X63.4884 Y42.3008 
N01370 G00 Z1.0000  
N01380 G00 X65.4374 Y40.7416 
N01390 G01 Z-0.1000 F75    
N01400 G01 X64.6578 Y40.7416 F100   
N01410 G01 X64.2680 Y41.1314 
N01420 G01 X64.2680 Y41.9110 
N01430 G01 X64.6578 Y42.3008 
N01440 G01 X65.4374 Y42.3008 
N01450 G01 X65.8272 Y41.9110 
N01460 G01 X65.8272 Y41.5212 
N01470 G01 X64.2680 Y41.5212 
N01480 G00 Z1.0000  
N01490 G00 X66.6068 Y40.7416 
N01500 G01 Z-0.1000 F75    
N01510 G01 X66.6068 Y42.3008 F100   
N01520 G00 Z1.0000  
N01530 G00 X66.6068 Y41.5212 
N01540 G01 Z-0.1000 F75    
N01550 G01 X67.3864 Y42.3008 F100   
N01560 G01 X67.7762 Y42.3008 
N01570 G00 Z1.0000  
N01580 G00 X57.2516 Y39.2704 
N01590 G01 Z-0.1000 F75    
N01600 G01 X57.2516 Y36.9316 F100   
N01610 G01 X58.8108 Y36.9316 
N01620 G00 Z1.0000  
N01630 G00 X61.1496 Y39.2704 
N01640 G01 Z-0.1000 F75    
N01650 G01 X59.5904 Y39.2704 F100   
N01660 G01 X59.5904 Y36.9316 
N01670 G01 X61.1496 Y36.9316 
N01680 G00 Z1.0000  
N01690 G00 X59.5904 Y38.1010 
N01700 G01 Z-0.1000 F75    
N01710 G01 X60.3700 Y38.1010 F100   
N01720 G00 Z1.0000  
N01730 G00 X61.9292 Y39.2704 
N01740 G01 Z-0.1000 F75    
N01750 G01 X61.9292 Y36.9316 F100   
N01760 G01 X63.0986 Y36.9316 
N01770 G01 X63.4884 Y37.3214 
N01780 G01 X63.4884 Y38.8806 
N01790 G01 X63.0986 Y39.2704 
N01800 G01 X61.9292 Y39.2704 
N01810 G00 Z1.0000  
N01820 G00 X85.1916 Y14.6060 
N01830 G01 Z-0.1000 F75    
N01840 G01 X86.7508 Y14.6060 F100   
N01850 G00 Z1.0000  
N01860 G00 X85.9712 Y15.3856 
N01870 G01 Z-0.1000 F75    
N01880 G01 X85.9712 Y13.8264 F100   
N01890 G00 Z1.0000  
N01900 G00 X87.5304 Y15.3856 
N01910 G01 Z-0.1000 F75    
N01920 G01 X87.9202 Y15.7754 F100   
N01930 G01 X88.6998 Y15.7754 
N01940 G01 X89.0896 Y15.3856 
N01950 G01 X89.0896 Y14.9958 
N01960 G01 X88.6998 Y14.6060 
N01970 G01 X88.3100 Y14.6060 
N01980 G00 Z1.0000  
N01990 G00 X88.6998 Y14.6060 
N02000 G01 Z-0.1000 F75    
N02010 G01 X89.0896 Y14.2162 F100   
N02020 G01 X89.0896 Y13.8264 
N02030 G01 X88.6998 Y13.4366 
N02040 G01 X87.9202 Y13.4366 
N02050 G01 X87.5304 Y13.8264 
N02060 G00 Z1.0000  
N02070 G00 X89.8692 Y14.9958 
N02080 G01 Z-0.1000 F75    
N02090 G01 X90.6488 Y13.4366 F100   
N02100 G01 X91.4284 Y14.9958 
N02110 G00 Z1.0000  
N02120 G00 X92.2080 Y15.3856 
N02130 G01 Z-0.1000 F75    
N02140 G01 X92.5978 Y15.7754 F100   
N02150 G01 X93.3774 Y15.7754 
N02160 G01 X93.7672 Y15.3856 
N02170 G01 X93.7672 Y14.9958 
N02180 G01 X93.3774 Y14.6060 
N02190 G01 X92.9876 Y14.6060 
N02200 G00 Z1.0000  
N02210 G00 X93.3774 Y14.6060 
N02220 G01 Z-0.1000 F75    
N02230 G01 X93.7672 Y14.2162 F100   
N02240 G01 X93.7672 Y13.8264 
N02250 G01 X93.3774 Y13.4366 
N02260 G01 X92.5978 Y13.4366 
N02270 G01 X92.2080 Y13.8264 
N02280 G00 Z1.0000  
N02290 G00 X59.7916 Y4.5466  
N02300 G01 Z-0.1000 F75    
N02310 G01 X59.7916 Y6.8854  F100   
N02320 G01 X60.9610 Y6.8854  
N02330 G01 X61.3508 Y6.4956  
N02340 G01 X61.3508 Y5.7160  
N02350 G01 X60.9610 Y5.3262  
N02360 G01 X59.7916 Y5.3262  
N02370 G00 Z1.0000  
N02380 G00 X60.5712 Y5.3262  
N02390 G01 Z-0.1000 F75    
N02400 G01 X61.3508 Y4.5466  F100   
N02410 G00 Z1.0000  
N02420 G00 X63.2998 Y4.5466  
N02430 G01 Z-0.1000 F75    
N02440 G01 X62.5202 Y4.5466  F100   
N02450 G01 X62.1304 Y4.9364  
N02460 G01 X62.1304 Y5.7160  
N02470 G01 X62.5202 Y6.1058  
N02480 G01 X63.2998 Y6.1058  
N02490 G01 X63.6896 Y5.7160  
N02500 G01 X63.6896 Y5.3262  
N02510 G01 X62.1304 Y5.3262  
N02520 G00 Z1.0000  
N02530 G00 X64.4692 Y4.5466  
N02540 G01 Z-0.1000 F75    
N02550 G01 X65.6386 Y4.5466  F100   
N02560 G01 X66.0284 Y4.9364  
N02570 G01 X65.6386 Y5.3262  
N02580 G01 X64.8590 Y5.3262  
N02590 G01 X64.4692 Y5.7160  
N02600 G01 X64.8590 Y6.1058  
N02610 G01 X66.0284 Y6.1058  
N02620 G00 Z1.0000  
N02630 G00 X67.9774 Y4.5466  
N02640 G01 Z-0.1000 F75    
N02650 G01 X67.1978 Y4.5466  F100   
N02660 G01 X66.8080 Y4.9364  
N02670 G01 X66.8080 Y5.7160  
N02680 G01 X67.1978 Y6.1058  
N02690 G01 X67.9774 Y6.1058  
N02700 G01 X68.3672 Y5.7160  
N02710 G01 X68.3672 Y5.3262  
N02720 G01 X66.8080 Y5.3262  
N02730 G00 Z1.0000  
N02740 G00 X69.5366 Y6.4956  
N02750 G01 Z-0.1000 F75    
N02760 G01 X69.5366 Y4.9364  F100   
N02770 G01 X69.9264 Y4.5466  
N02780 G00 Z1.0000  
N02790 G00 X69.1468 Y6.1058  
N02800 G01 Z-0.1000 F75    
N02810 G01 X69.9264 Y6.1058  F100   
N02820 G00 Z1.0000  
N02830 G00 X2.6416  Y51.9704 
N02840 G01 Z-0.1000 F75    
N02850 G01 X2.6416  Y49.6316 F100   
N02860 G01 X4.2008  Y49.6316 
N02870 G00 Z1.0000  
N02880 G00 X4.9804  Y49.6316 
N02890 G01 Z-0.1000 F75    
N02900 G01 X4.9804  Y51.1908 F100   
N02910 G01 X5.7600  Y51.9704 
N02920 G01 X6.5396  Y51.1908 
N02930 G01 X6.5396  Y49.6316 
N02940 G00 Z1.0000  
N02950 G00 X4.9804  Y50.8010 
N02960 G01 Z-0.1000 F75    
N02970 G01 X6.5396  Y50.8010 F100   
N02980 G00 Z1.0000  
N02990 G00 X7.3192  Y49.6316 
N03000 G01 Z-0.1000 F75    
N03010 G01 X7.3192  Y51.9704 F100   
N03020 G01 X8.4886  Y51.9704 
N03030 G01 X8.8784  Y51.5806 
N03040 G01 X8.8784  Y50.8010 
N03050 G01 X8.4886  Y50.4112 
N03060 G01 X7.3192  Y50.4112 
N03070 G00 Z1.0000  
N03080 G00 X8.0988  Y50.4112 
N03090 G01 Z-0.1000 F75    
N03100 G01 X8.8784  Y49.6316 F100   
N03110 G00 Z1.0000  
N03120 G00 X11.2172 Y51.5806 
N03130 G01 Z-0.1000 F75    
N03140 G01 X10.8274 Y51.9704 F100   
N03150 G01 X10.0478 Y51.9704 
N03160 G01 X9.6580  Y51.5806 
N03170 G01 X9.6580  Y50.0214 
N03180 G01 X10.0478 Y49.6316 
N03190 G01 X10.8274 Y49.6316 
N03200 G01 X11.2172 Y50.0214 
N03210 G01 X11.2172 Y50.8010 
N03220 G01 X10.4376 Y50.8010 
N03230 G00 Z1.0000  
N03240 G00 X13.5560 Y51.9704 
N03250 G01 Z-0.1000 F75    
N03260 G01 X11.9968 Y51.9704 F100   
N03270 G01 X11.9968 Y49.6316 
N03280 G01 X13.5560 Y49.6316 
N03290 G00 Z1.0000  
N03300 G00 X11.9968 Y50.8010 
N03310 G01 Z-0.1000 F75    
N03320 G01 X12.7764 Y50.8010 F100   
N03330 G00 Z1.0000  
N03340 G00 X2.6416  Y48.1604 
N03350 G01 Z-0.1000 F75    
N03360 G01 X2.6416  Y45.8216 F100   
N03370 G01 X4.2008  Y45.8216 
N03380 G00 Z1.0000  
N03390 G00 X6.5396  Y48.1604 
N03400 G01 Z-0.1000 F75    
N03410 G01 X4.9804  Y48.1604 F100   
N03420 G01 X4.9804  Y45.8216 
N03430 G01 X6.5396  Y45.8216 
N03440 G00 Z1.0000  
N03450 G00 X4.9804  Y46.9910 
N03460 G01 Z-0.1000 F75    
N03470 G01 X5.7600  Y46.9910 F100   
N03480 G00 Z1.0000  
N03490 G00 X7.3192  Y48.1604 
N03500 G01 Z-0.1000 F75    
N03510 G01 X7.3192  Y45.8216 F100   
N03520 G01 X8.4886  Y45.8216 
N03530 G01 X8.8784  Y46.2114 
N03540 G01 X8.8784  Y47.7706 
N03550 G01 X8.4886  Y48.1604 
N03560 G01 X7.3192  Y48.1604 
N03570 G00 Z1.0000  
N03580 G00 X2.6416  Y42.0116 
N03590 G01 Z-0.1000 F75    
N03600 G01 X3.4212  Y42.0116 F100   
N03610 G00 Z1.0000  
N03620 G00 X3.0314  Y42.0116 
N03630 G01 Z-0.1000 F75    
N03640 G01 X3.0314  Y44.3504 F100   
N03650 G00 Z1.0000  
N03660 G00 X2.6416  Y44.3504 
N03670 G01 Z-0.1000 F75    
N03680 G01 X3.4212  Y44.3504 F100   
N03690 G00 Z1.0000  
N03700 G00 X4.2008  Y42.0116 
N03710 G01 Z-0.1000 F75    
N03720 G01 X4.2008  Y44.3504 F100   
N03730 G01 X5.7600  Y42.0116 
N03740 G01 X5.7600  Y44.3504 
N03750 G00 Z1.0000  
N03760 G00 X7.3192  Y42.0116 
N03770 G01 Z-0.1000 F75    
N03780 G01 X7.3192  Y44.3504 F100   
N03790 G00 Z1.0000  
N03800 G00 X6.5396  Y44.3504 
N03810 G01 Z-0.1000 F75    
N03820 G01 X8.0988  Y44.3504 F100   
N03830 G00 Z1.0000  
N03840 G00 X10.4376 Y44.3504 
N03850 G01 Z-0.1000 F75    
N03860 G01 X8.8784  Y44.3504 F100   
N03870 G01 X8.8784  Y42.0116 
N03880 G01 X10.4376 Y42.0116 
N03890 G00 Z1.0000  
N03900 G00 X8.8784  Y43.1810 
N03910 G01 Z-0.1000 F75    
N03920 G01 X9.6580  Y43.1810 F100   
N03930 G00 Z1.0000  
N03940 G00 X11.2172 Y42.0116 
N03950 G01 Z-0.1000 F75    
N03960 G01 X11.2172 Y44.3504 F100   
N03970 G01 X12.3866 Y44.3504 
N03980 G01 X12.7764 Y43.9606 
N03990 G01 X12.7764 Y43.1810 
N04000 G01 X12.3866 Y42.7912 
N04010 G01 X11.2172 Y42.7912 
N04020 G00 Z1.0000  
N04030 G00 X11.9968 Y42.7912 
N04040 G01 Z-0.1000 F75    
N04050 G01 X12.7764 Y42.0116 F100   
N04060 G00 Z1.0000  
N04070 G00 X13.5560 Y42.0116 
N04080 G01 Z-0.1000 F75    
N04090 G01 X13.5560 Y44.3504 F100   
N04100 G01 X15.1152 Y44.3504 
N04110 G00 Z1.0000  
N04120 G00 X13.5560 Y43.1810 
N04130 G01 Z-0.1000 F75    
N04140 G01 X14.3356 Y43.1810 F100   
N04150 G00 Z1.0000  
N04160 G00 X15.8948 Y42.0116 
N04170 G01 Z-0.1000 F75    
N04180 G01 X15.8948 Y43.5708 F100   
N04190 G01 X16.6744 Y44.3504 
N04200 G01 X17.4540 Y43.5708 
N04210 G01 X17.4540 Y42.0116 
N04220 G00 Z1.0000  
N04230 G00 X15.8948 Y43.1810 
N04240 G01 Z-0.1000 F75    
N04250 G01 X17.4540 Y43.1810 F100   
N04260 G00 Z1.0000  
N04270 G00 X19.7928 Y43.9606 
N04280 G01 Z-0.1000 F75    
N04290 G01 X19.4030 Y44.3504 F100   
N04300 G01 X18.6234 Y44.3504 
N04310 G01 X18.2336 Y43.9606 
N04320 G01 X18.2336 Y42.4014 
N04330 G01 X18.6234 Y42.0116 
N04340 G01 X19.4030 Y42.0116 
N04350 G01 X19.7928 Y42.4014 
N04360 G00 Z1.0000  
N04370 G00 X22.1316 Y44.3504 
N04380 G01 Z-0.1000 F75    
N04390 G01 X20.5724 Y44.3504 F100   
N04400 G01 X20.5724 Y42.0116 
N04410 G01 X22.1316 Y42.0116 
N04420 G00 Z1.0000  
N04430 G00 X20.5724 Y43.1810 
N04440 G01 Z-0.1000 F75    
N04450 G01 X21.3520 Y43.1810 F100   
N04460 G00 Z1.0000  
N04470 G00 X7.3192  Y40.5404 
N04480 G01 Z-0.1000 F75    
N04490 G01 X7.3192  Y38.9812 F100   
N04500 G01 X8.0988  Y38.2016 
N04510 G01 X8.8784  Y38.9812 
N04520 G01 X8.8784  Y40.5404 
N04530 G00 Z1.0000  
N04540 G00 X9.6580  Y39.3710 
N04550 G01 Z-0.1000 F75    
N04560 G01 X11.2172 Y39.3710 F100   
N04570 G00 Z1.0000  
N04580 G00 X14.3356 Y39.7608 
N04590 G01 Z-0.1000 F75    
N04600 G01 X15.1152 Y40.5404 F100   
N04610 G01 X15.1152 Y38.2016 
N04620 G00 Z1.0000  
N04630 G00 X14.3356 Y38.2016 
N04640 G01 Z-0.1000 F75    
N04650 G01 X15.8948 Y38.2016 F100   
N04660 G00 Z1.0000  
N04670 G00 X16.6744 Y38.2016 
N04680 G01 Z-0.1000 F75    
N04690 G01 X16.6744 Y38.5914 F100   
N04700 G01 X17.0642 Y38.5914 
N04710 G01 X17.0642 Y38.2016 
N04720 G01 X16.6744 Y38.2016 
N04730 G00 Z1.0000  
N04740 G00 X17.8438 Y39.7608 
N04750 G01 Z-0.1000 F75    
N04760 G01 X18.6234 Y40.5404 F100   
N04770 G01 X18.6234 Y38.2016 
N04780 G00 Z1.0000  
N04790 G00 X17.8438 Y38.2016 
N04800 G01 Z-0.1000 F75    
N04810 G01 X19.4030 Y38.2016 F100   
N04820 G00 Z1.0000  
N04830 G00 X20.1826 Y38.5914 
N04840 G01 Z-0.1000 F75    
N04850 G01 X20.1826 Y40.1506 F100   
N04860 G01 X20.5724 Y40.5404 
N04870 G01 X21.3520 Y40.5404 
N04880 G01 X21.7418 Y40.1506 
N04890 G01 X21.7418 Y38.5914 
N04900 G01 X21.3520 Y38.2016 
N04910 G01 X20.5724 Y38.2016 
N04920 G01 X20.1826 Y38.5914 
N04930 G01 X21.7418 Y40.1506 
N04940 G00 Z1.0000  
N04950 G00 X68.6816 Y49.5310 
N04960 G01 Z-0.1000 F75    
N04970 G01 X70.2408 Y49.5310 F100   
N04980 G00 Z1.0000  
N04990 G00 X69.4612 Y50.3106 
N05000 G01 Z-0.1000 F75    
N05010 G01 X69.4612 Y48.7514 F100   
N05020 G00 Z1.0000  
N05030 G00 X72.5796 Y50.7004 
N05040 G01 Z-0.1000 F75    
N05050 G01 X71.0204 Y50.7004 F100   
N05060 G01 X71.0204 Y49.5310 
N05070 G01 X71.8000 Y49.9208 
N05080 G01 X72.1898 Y49.9208 
N05090 G01 X72.5796 Y49.5310 
N05100 G01 X72.5796 Y48.7514 
N05110 G01 X72.1898 Y48.3616 
N05120 G01 X71.4102 Y48.3616 
N05130 G01 X71.0204 Y48.7514 
N05140 G00 Z1.0000  
N05150 G00 X73.3592 Y49.9208 
N05160 G01 Z-0.1000 F75    
N05170 G01 X74.1388 Y48.3616 F100   
N05180 G01 X74.9184 Y49.9208 
N05190 G00 Z1.0000  
N05200 G00 X55.3466 Y49.5310 
N05210 G01 Z-0.1000 F75    
N05220 G01 X56.9058 Y49.5310 F100   
N05230 G00 Z1.0000  
N05240 G00 X56.1262 Y50.3106 
N05250 G01 Z-0.1000 F75    
N05260 G01 X56.1262 Y48.7514 F100   
N05270 G00 Z1.0000  
N05280 G00 X59.2446 Y50.7004 
N05290 G01 Z-0.1000 F75    
N05300 G01 X57.6854 Y50.7004 F100   
N05310 G01 X57.6854 Y49.5310 
N05320 G01 X58.4650 Y49.9208 
N05330 G01 X58.8548 Y49.9208 
N05340 G01 X59.2446 Y49.5310 
N05350 G01 X59.2446 Y48.7514 
N05360 G01 X58.8548 Y48.3616 
N05370 G01 X58.0752 Y48.3616 
N05380 G01 X57.6854 Y48.7514 
N05390 G00 Z1.0000  
N05400 G00 X60.0242 Y49.9208 
N05410 G01 Z-0.1000 F75    
N05420 G01 X60.8038 Y48.3616 F100   
N05430 G01 X61.5834 Y49.9208 
N05440 G00 Z1.0000  
N05450 G00 X65.1608 Y50.3106 
N05460 G01 Z-0.1000 F75    
N05470 G01 X64.7710 Y50.7004 F100   
N05480 G01 X63.9914 Y50.7004 
N05490 G01 X63.6016 Y50.3106 
N05500 G01 X63.6016 Y48.7514 
N05510 G01 X63.9914 Y48.3616 
N05520 G01 X64.7710 Y48.3616 
N05530 G01 X65.1608 Y48.7514 
N05540 G01 X65.1608 Y49.5310 
N05550 G01 X64.3812 Y49.5310 
N05560 G00 Z1.0000  
N05570 G00 X16.1212 Y55.9816 
N05580 G01 Z-0.1000 F75    
N05590 G01 X16.1212 Y58.3204 F100   
N05600 G00 Z1.0000  
N05610 G00 X15.3416 Y58.3204 
N05620 G01 Z-0.1000 F75    
N05630 G01 X16.9008 Y58.3204 F100   
N05640 G00 Z1.0000  
N05650 G00 X17.6804 Y58.3204 
N05660 G01 Z-0.1000 F75    
N05670 G01 X19.2396 Y55.9816 F100   
N05680 G00 Z1.0000  
N05690 G00 X19.2396 Y58.3204 
N05700 G01 Z-0.1000 F75    
N05710 G01 X17.6804 Y55.9816 F100   
N05720 G00 Z1.0000  
N05730 G00 X63.2558 Y16.0206 
N05740 G01 Z-0.1000 F75    
N05750 G01 X62.8660 Y16.4104 F100   
N05760 G01 X62.0864 Y16.4104 
N05770 G01 X61.6966 Y16.0206 
N05780 G01 X61.6966 Y14.4614 
N05790 G01 X62.0864 Y14.0716 
N05800 G01 X62.8660 Y14.0716 
N05810 G01 X63.2558 Y14.4614 
N05820 G00 Z25.0000 
N05830 M05
N05840 M02
